X: 10710
T: Downton Bridge
R: jig
M: 6/8
K: Gmajor
|:Ddd Dcc|BGE D3|DFA cBA|GBe d3|
Ddd Dcc|BGE D3|DFA cBA|GBA G3:|
|:Gce gfe|dBG D3|DFA cBA|GBe d3|
ceg gfe|dBG D3|DFA cBA|GBA G3:|
|:DFF DAA|DGG DBB|DFF DFA|GBe d3|
DFF DAA|DGG DBB|DFA cBA|GBA G3:|

